X:1
T:Tarry Trousers
M:4/4
L:1/4
K:C
 C| C C G E| F D B,/2B,/2 B,| C/2C/2 C/2C/2 G E| F3| G| _B B A F| G F E C|\
 C/2C/2 C/2C/2 D =B,| C3||

